packages/foundations/assets/icons/functional/images/tooling/wrench_20.svg

<svg width="20" height="20" viewBox="0 0 20 20" fill="none" xmlns="http://www.w3.org/2000/svg">
<g clip-path="url(#clip0_187_700)">
<path fill-rule="evenodd" clip-rule="evenodd" d="M12.2106 1.7947C10.6193 1.7947 9.09317 2.42684 7.96795 3.55206C6.84273 4.67727 6.21059 6.2034 6.21059 7.7947C6.21059 8.6117 6.34559 9.0297 6.41259 9.3407L2.08259 13.6707C1.98962 13.7636 1.91586 13.8739 1.86553 13.9953C1.81521 14.1167 1.78931 14.2468 1.78931 14.3782C1.78931 14.5096 1.81521 14.6397 1.86553 14.7611C1.91586 14.8825 1.98962 14.9928 2.08259 15.0857L4.90359 17.9147C5.34359 18.3287 5.96559 18.2747 6.32659 17.9147L10.6506 13.5887C11.0646 13.7207 11.7756 13.7947 12.2106 13.7947C13.8019 13.7947 15.328 13.1626 16.4532 12.0373C17.5785 10.9121 18.2106 9.38599 18.2106 7.7947C18.2106 7.0347 18.0506 6.1697 17.7426 5.4837C17.4696 4.9057 16.6366 4.7767 16.1576 5.2557L13.6186 7.7927L12.2046 6.3787L14.7396 3.8437C14.857 3.72621 14.9432 3.58134 14.9906 3.42216C15.038 3.26298 15.045 3.09452 15.0109 2.93197C14.9769 2.76942 14.9029 2.6179 14.7956 2.49111C14.6884 2.36431 14.5512 2.26622 14.3966 2.2057C13.7 1.93335 12.9585 1.79395 12.2106 1.7947ZM11.9516 3.8037L10.0836 5.6717C9.89612 5.85922 9.79081 6.11353 9.79081 6.3787C9.79081 6.64386 9.89612 6.89817 10.0836 7.0857L12.8896 9.9147C13.3616 10.3237 13.9656 10.2747 14.3256 9.9147L16.2016 8.0387C16.0186 10.2237 14.2856 11.7947 12.2106 11.7947C11.7006 11.7947 11.1106 11.6667 10.6736 11.4927C10.2646 11.3787 9.92159 11.4907 9.67059 11.7407L5.61859 15.7927L4.20459 14.3787L8.25959 10.3237C8.39715 10.1862 8.4916 10.0115 8.53139 9.82109C8.57117 9.63068 8.55456 9.4328 8.48359 9.2517C8.30231 8.78736 8.20971 8.29316 8.21059 7.7947C8.21059 5.7197 9.79259 3.9657 11.9516 3.8037Z" fill="#1A1C1F"/>
</g>
<defs>
<clipPath id="clip0_187_700">
<rect width="20" height="20" fill="white"/>
</clipPath>
</defs>
</svg>

<svg xmlns="http://www.w3.org/2000/svg" width="20" height="20" fill="none"><g clip-path="url(#a)"><path fill="#1A1C1F" fill-rule="evenodd" d="M12.21 1.795a6 6 0 0 0-6 6c0 .817.136 1.235.203 1.546l-4.33 4.33a1 1 0 0 0 0 1.415l2.82 2.829c.44.414 1.063.36 1.424 0l4.324-4.326c.414.132 1.125.206 1.56.206a6 6 0 0 0 6-6c0-.76-.16-1.625-.468-2.311-.273-.578-1.106-.707-1.585-.228l-2.54 2.537-1.413-1.414 2.535-2.535a1 1 0 0 0-.343-1.638 6 6 0 0 0-2.186-.411m-.258 2.009-1.868 1.868a1 1 0 0 0 0 1.414l2.806 2.829c.472.409 1.076.36 1.436 0l1.876-1.876c-.183 2.185-1.916 3.756-3.991 3.756-.51 0-1.1-.128-1.537-.302-.41-.114-.752-.002-1.003.248l-4.052 4.052-1.414-1.414 4.055-4.055a1 1 0 0 0 .224-1.072 4 4 0 0 1-.273-1.457c0-2.075 1.582-3.83 3.74-3.991" clip-rule="evenodd"/></g><defs><clipPath id="a"><path fill="#fff" d="M0 0h20v20H0z"/></clipPath></defs></svg>
